X:1
T:Title
%%score 1 2
L:1/8
Q:1/4=120
M:3/4
K:F
V:1 treble nm="Part_1"
V:2 bass nm="Part_2"
V:1
 z6 | z6 | z6 | z3 f a/f/ x | e6 | z3 f a/e/ x | d3 d f/d/ x | c4 z d | z a2 z g3 d | a2 g3 f2 | %10
 d6 | z3 f gf | e6 | z3 e ge | c3 c ec | B3 B cB | z2 A2 B2 | c3 d e2- | e2 c2 d2 | e6- | %20
 e3 f a/f/ x | e6 | z3 f a/e/ x | d3 f ad' | e'4 z d | !tenuto!f2 !tenuto!e3 !tenuto!d | %26
 !tenuto!A2 =B2 d2 | !tenuto!f6 |[M:3/4] !tenuto!e'4 !>!d4 z !tenuto!f!tenuto!g!tenuto!f |] %29
!mp! !tenuto!e6 | z3 !tenuto!e !tenuto!g!tenuto!e | c3 c !tenuto!ec | %32
 !>!B!>!c .d!tenuto!e !tenuto!g!tenuto!a | !tenuto!b6- | !tenuto!b2 z4 | b2 a2 z g | d'2 a2 g2 | %37
 a6 | f6 | a2 g2 z f | a2 _g2 d2 | =B2 !tenuto!_d/!tenuto!=d/ !tenuto!_e/!tenuto!=e/ x2 | %42
[M:3/4][K:treble] !>!!tenuto!f!tenuto!_g !tenuto!=g!tenuto!_a !tenuto!=aB | %43
 !tenuto!b!tenuto!a !tenuto!_a!tenuto!g !tenuto!_g!tenuto!f | !>!e/_e/ d _d c =B x | %45
!mp! !tenuto!e2!f! (3:2:2g2 z d x | e2 B2 =B2 | c6 | cd e!tenuto!f !tenuto!a/!tenuto!f/ x | e6 | %50
 z3 !tenuto!f !tenuto!a/e/ x | d3 d !tenuto!f/!tenuto!a/ x | !tenuto!c'4 z !tenuto!f | %53
 !tenuto!a2 !tenuto!g3 d | !tenuto!a2 !tenuto!g2 !tenuto!f2 | d6 | %56
 z3 !tenuto!f !tenuto!g!tenuto!f | e6 | z3 .e !tenuto!ge | c3 c ec | !fermata!B6 | z2 [Aa]2 [Bb]2 | %62
 [cc']3 [dd'] [ee']2 | z2 [cegc']2 [dd']2 | !arpeggio![egc'e']2 z [ff'] [aa']/[ff']/ x | [ee']6 | %66
 z6 | z6 | z3 f a/f/ x | e6 | [Ff]6 | [Ee]6- | [Ee]3 f a/f/ x | e6 | z3 f a/e/ x | d3 d f/d/ x | %76
 c4 z =B | a2 g3 d | a2 g2 f2 |[K:F#] x6 | f g f x3 | e6 | z3 e ge | c3 c ec | B6 | z2 A2 B2 | %86
 c3 d e2 | z2 !>![cc']2 [dd']2 | !fermata![ee']6 ||[K:F][K:treble] z6 | z6 | z6 | %92
 z3 f !tenuto!a/!tenuto!f/ x | !tenuto!e6 | z3 !tenuto!f !tenuto!a/!tenuto!e/ x | %95
 !tenuto!d3 !tenuto!d !tenuto!f/!tenuto!d/ x | c4 z !tenuto!d | !tenuto!a2 !tenuto!g3 !tenuto!d | %98
 !tenuto!a2 !tenuto!g2 !tenuto!f2 | !tenuto!d6 | z3 !tenuto!f !tenuto!g!tenuto!f | !tenuto!e6 | %102
 z3 !tenuto!e !tenuto!g!tenuto!e | c3 c !tenuto!ec | B6 | z2 !tenuto!A2 B2 | %106
 c2 !tenuto!d2 !tenuto!e2 | z2 c2 !tenuto!d2 | !>!!tenuto!e2 !tenuto!f2 !tenuto!g2 | !tenuto!f6- | %110
 !tenuto!f6 | !tenuto!f6 | !tenuto!f6 | z4 z F | c/f/ a c' f' c'' x | z2 x4 | z6 | z6 |] %118
V:2
 d2 [fa]2 [fa]2 | C,2 [A,C]2 [A,C]2 | D,2 [A,C]2 [A,C]2 | C,2 D,2 E,2 | F,2 [A,C]2 [A,C]2 | %5
 C,2 [A,C]2 [A,C]2 | D,2 [A,C]2 [A,C]2 | C,2 [A,C]2 [A,C]2 | =B,,2 [F,G,]2 [F,G,]2 x2 | %9
 =B,,2 [F,G,]2 [F,G,]2 x | =B,,2 [F,G,]2 [F,G,]2 | =B,,2 [F,G,]2 [F,G,]2 | E,2 [G,C]2 [G,C]2 | %13
 D,2 [G,C]2 [G,C]2 | C,2 [E,G,]2 [E,G,]2 | B,,2 [E,G,]2 [E,G,]2 | F,2 [A,C]2 [A,C]2 | %17
 F,2 [A,C]2 [A,C]2 | C,2 [E,G,]2 [E,G,]2 | G,3 x3 |[K:bass-8] z z2 x3 | F,2 [A,C]2 [A,C]2 | %22
 C,2 [A,C]2 [A,C]2 | D,2 [A,C]2 [A,C]2 | C,2 [A,C]2 [A,C]2 | =B,,2 [F,G,]2 [F,G,]2 | %26
 =B,2 [FG]2 [FG]2 | =B,2 [FG]2 [FG]2 |[M:3/4] =B,2 [FG]2 [FG]2 z2 x4 |] [EGc]6 | [DGc]6 | %31
 .[EG]4 x2 | x6 | C,2 [E,G,]2 [E,G,]2 | G,2 [EG]2 [EG]2 |!mf! C2 [EG]2 [EG]2 | G,2 [EG]2 [EG]2 | %37
 F,2 [FA]2 [FA]2 | C2 [FA]2 [FA]2 | F,2 [FA]2 [FA]2 | D,2 [F=B]2 [FB]2 | =B,2 [F=B]4- | [FB]6 | %43
 D2 [FB]4- | [FB]6 | [EGc]6- | [EGc]6 | ([_A-c-e]6 | [Ace]6) | F2 [Ac]4 | C2 [Ac]4 | D2 [Ac]4 | %52
 C2 [Ac]4 | =B,2 [GB]4 | G,2 [G=B]4 | =B,2 [G=B]4 | D2 [G=B]4 | E2 [Gc]4 | D2 [Gc]4 | C2 [EG]4 | %60
 !fermata!B,6 | !arpeggio![F-A-c]6 | [FAc]6 | !arpeggio!G3 x3 |[K:bass-8] x6 | F,2 [A,C]2 [A,C]2 | %66
 C,2 [A,C]2 [A,C]2 | D2 [Ac]2 [Ac]2 | C2 [Ac]4 | z6 | z6 | z6 | z6 | [FAc]6 | [EAc]6 | [FAc]6 | %76
 [_EAc]6 | x6 | [DG]6 |[K:F#] x6 | x6 | [EGc]6 | [DGc]6 | .[EG]4 x2 | x6 | ([F,A,-C]6 | [F,A,C]6) | %87
 [E,G,C]6- | [E,G,C]6 ||[K:F][K:treble][K:treble] [Af]6 | [Ae]6 | [Af]6 | [Ae]6 | [Af]6 | [Ae]6 | %95
 [Af]6 | [_EAc]6 | [=B,DG]6 | [A,DG]6 | [G,=B,D]6 | [F,=B,D]6 | [ce]6 | c6 | [GBc]6 | [GB]6 | %105
 ([CFA]6 | !>!C6) | (!arpeggio![G,-CE-]6 | [G,CE]6) |[K:bass] [F,A,C]6 | [E,A,C]6 | [F,A,C]6 | %112
 [E,A,C]6 | !>!F,,/!>!C,/ F,/A,/ C z x2 | z6 | z6 | !tenuto!F,,6- | !>!!tenuto!F,,6 |] %118

